icon-themes/breeze_svg/cmd/lc_alignleft.svg

<svg viewBox="0 0 24 24" xmlns="http://www.w3.org/2000/svg"><path d="m4 4v1h16v-1zm0 2v1h9v-1zm0 4v1h10v-1zm0 2v1h4v-1zm0 4v1h10v-1zm0 2v1h7v-1zm8 1v1h2v-1z" fill="#4d4d4d"/></svg>

<svg xmlns="http://www.w3.org/2000/svg" viewBox="0 0 24 24">
 <path 
     style="fill:#4d4d4d" 
     d="M 4 4 L 4 5 L 20 5 L 20 4 L 4 4 z M 4 6 L 4 7 L 13 7 L 13 6 L 4 6 z M 4 10 L 4 11 L 14 11 L 14 10 L 4 10 z M 4 12 L 4 13 L 8 13 L 8 12 L 4 12 z M 4 16 L 4 17 L 14 17 L 14 16 L 4 16 z M 4 18 L 4 19 L 11 19 L 11 18 L 4 18 z M 12 19 L 12 20 L 14 20 L 14 19 L 12 19 z "
     />
 </svg>
